pix_core/f/isf.svg

<svg fill="none" preserveAspectRatio="xMinYMid meet" viewBox="0 0 24 24" xmlns="http://www.w3.org/2000/svg"><g clip-rule="evenodd" fill="#fff" fill-rule="evenodd"><path d="m9.14645 5.03292c.19526-.19526.51184-.19526.7071 0l1.50005 1.5c.1952.19526.1952.51185 0 .70711l-1.2476 1.24752.7476.74752c.1952.19526.1952.51184 0 .70711-.1953.19522-.5119.19522-.7072 0l-.1464-.14645v1.70427c0 .2762.2239.5.5.5h.6271c.1712-.3053.4979-.5117.8729-.5117s.7017.2064.8729.5117h.1324c.8285 0 1.5.6716 1.5 1.5v1.5h1.4947c.8284 0 1.5.6716 1.5 1.5v1c0 .8284-.6716 1.5-1.5 1.5h-4c-.8284 0-1.5-.6716-1.5-1.5h-2.29289l.14644.1464c.19527.1953.19527.5119 0 .7072-.19526.1952-.51184.1952-.7071 0l-.99987-.9999c-.04794-.048-.08424-.1033-.10864-.1623-.02445-.059-.03794-.1236-.03794-.1914s.01349-.1324.03794-.1914c.0244-.059.06057-.1142.10851-.1622l1-1c.19526-.1952.51184-.1952.7071 0 .19527.1953.19527.5119 0 .7072l-.14644.1464h2.29289c0-.8284.6716-1.5 1.5-1.5h1.5053v-1.5c0-.2761-.2238-.5-.5-.5h-.146c-.1745.2924-.494.4883-.8593.4883s-.6848-.1959-.8593-.4883h-.6407c-.82843 0-1.5-.6715-1.5-1.5v-1.70427l-.14645.14645c-.19526.19522-.51184.19522-.7071 0-.19527-.19527-.19527-.51185 0-.70711l.74752-.74752-1.24752-1.24752c-.19527-.19526-.19527-.51185 0-.70711zm-.43934 1.85355.79289.7929.7929-.7929-.7929-.79289zm2.79289 10.61353c0 .2761.2239.5.5.5h4c.2761 0 .5-.2239.5-.5v-1c0-.2761-.2239-.5-.5-.5h-4c-.2761 0-.5.2239-.5.5z"/><path d="m19.5 19v-10.17157c0-.66304-.2634-1.29893-.7322-1.76777l-3.8285-3.82843c-.4688-.46884-1.1047-.73223-1.7677-.73223h-6.1716c-1.38071 0-2.5 1.11929-2.5 2.5v14c0 1.3807 1.11929 2.5 2.5 2.5h10c1.3807 0 2.5-1.1193 2.5-2.5zm-12.5-15.5c-.82843 0-1.5.67157-1.5 1.5v14c0 .8284.67157 1.5 1.5 1.5h10c.8284 0 1.5-.6716 1.5-1.5v-10c0-.27614-.2239-.5-.5-.5h-3c-.8284 0-1.5-.67157-1.5-1.5v-3c0-.27614-.2239-.5-.5-.5zm10.7929 4-3.2929-3.29289v2.79289c0 .27614.2239.5.5.5z"/></g></svg>

<svg viewBox="0 0 24 24" fill="none" xmlns="http://www.w3.org/2000/svg" preserveAspectRatio="xMinYMid meet">
<path fill-rule="evenodd" clip-rule="evenodd" d="M9.14645 5.03292C9.34171 4.83766 9.65829 4.83766 9.85355 5.03292L11.3536 6.53292C11.5488 6.72818 11.5488 7.04477 11.3536 7.24003L10.106 8.48755L10.8536 9.23507C11.0488 9.43033 11.0488 9.74691 10.8536 9.94218C10.6583 10.1374 10.3417 10.1374 10.1464 9.94218L10 9.79573V11.5C10 11.7762 10.2239 12 10.5 12H11.1271C11.2983 11.6947 11.625 11.4883 12 11.4883C12.375 11.4883 12.7017 11.6947 12.8729 12H13.0053C13.8338 12 14.5053 12.6716 14.5053 13.5V15H16C16.8284 15 17.5 15.6716 17.5 16.5V17.5C17.5 18.3284 16.8284 19 16 19H12C11.1716 19 10.5 18.3284 10.5 17.5H8.20711L8.35355 17.6464C8.54882 17.8417 8.54882 18.1583 8.35355 18.3536C8.15829 18.5488 7.84171 18.5488 7.64645 18.3536L6.64658 17.3537C6.59864 17.3057 6.56234 17.2504 6.53794 17.1914C6.51349 17.1324 6.5 17.0678 6.5 17C6.5 16.9322 6.51349 16.8676 6.53794 16.8086C6.56234 16.7496 6.59851 16.6944 6.64645 16.6464L7.64645 15.6464C7.84171 15.4512 8.15829 15.4512 8.35355 15.6464C8.54882 15.8417 8.54882 16.1583 8.35355 16.3536L8.20711 16.5H10.5C10.5 15.6716 11.1716 15 12 15H13.5053V13.5C13.5053 13.2239 13.2815 13 13.0053 13H12.8593C12.6848 13.2924 12.3653 13.4883 12 13.4883C11.6347 13.4883 11.3152 13.2924 11.1407 13H10.5C9.67157 13 9 12.3285 9 11.5V9.79573L8.85355 9.94218C8.65829 10.1374 8.34171 10.1374 8.14645 9.94218C7.95118 9.74691 7.95118 9.43033 8.14645 9.23507L8.89397 8.48755L7.64645 7.24003C7.45118 7.04477 7.45118 6.72818 7.64645 6.53292L9.14645 5.03292ZM8.70711 6.88647L9.5 7.67937L10.2929 6.88647L9.5 6.09358L8.70711 6.88647ZM11.5 17.5C11.5 17.7761 11.7239 18 12 18H16C16.2761 18 16.5 17.7761 16.5 17.5V16.5C16.5 16.2239 16.2761 16 16 16H12C11.7239 16 11.5 16.2239 11.5 16.5V17.5Z" fill="#fff"/>
<path fill-rule="evenodd" clip-rule="evenodd" d="M19.5 19V8.82843C19.5 8.16539 19.2366 7.5295 18.7678 7.06066L14.9393 3.23223C14.4705 2.76339 13.8346 2.5 13.1716 2.5H7C5.61929 2.5 4.5 3.61929 4.5 5V19C4.5 20.3807 5.61929 21.5 7 21.5H17C18.3807 21.5 19.5 20.3807 19.5 19ZM7 3.5C6.17157 3.5 5.5 4.17157 5.5 5V19C5.5 19.8284 6.17157 20.5 7 20.5H17C17.8284 20.5 18.5 19.8284 18.5 19V9C18.5 8.72386 18.2761 8.5 18 8.5H15C14.1716 8.5 13.5 7.82843 13.5 7V4C13.5 3.72386 13.2761 3.5 13 3.5H7ZM17.7929 7.5L14.5 4.20711V7C14.5 7.27614 14.7239 7.5 15 7.5H17.7929Z" fill="#fff"/>
</svg>
